public/images/hero-2.svg

<?xml version="1.0" encoding="UTF-8"?>
<svg viewBox="0 0 128 119" xmlns="http://www.w3.org/2000/svg">
  <path d="m0.12201 57.403h4.2352v16.941h-4.2352v-16.941z" fill="#fff"/>
  <path d="m10.71 118.81h21.176c5.8446-7e-3 10.581-4.743 10.588-10.588v-50.822c-7e-3 -5.8447-4.7433-10.581-10.588-10.588h-21.176c-5.8447 7e-3 -10.581 4.7433-10.588 10.588 0 1.1695 0.94808 2.1175 2.1176 2.1175s2.1176-0.948 2.1176-2.1175c0-3.5086 2.8442-6.3528 6.3528-6.3528h21.176c3.5085 0 6.3527 2.8442 6.3527 6.3528v50.822c0 3.509-2.8442 6.353-6.3527 6.353h-21.176c-3.5086 0-6.3528-2.844-6.3528-6.353v-33.881c0-1.1695-0.94808-2.1176-2.1176-2.1176s-2.1176 0.9481-2.1176 2.1176v33.881c0.007001 5.845 4.7433 10.581 10.588 10.588z" fill="#2276F1"/>
  <path d="m116.59 65.874h-4.235c4.678 0 8.471 3.7923 8.471 8.4704 0 4.678-3.793 8.4703-8.471 8.4703h-4.235c4.678 0 8.47 3.7923 8.47 8.4704 0 4.678-3.792 8.4703-8.47 8.4703h-6.353c4.678 0 8.471 3.792 8.471 8.47s-3.793 8.471-8.471 8.471h-33.881c-9.3561 0-16.941-7.585-16.941-16.941v-45.359c-0.0029-3.4363 1.1872-6.7669 3.367-9.4233 5.4845-6.6281 15.691-20.054 15.691-27.804v-10.8c-0.0035-1.2176 0.5173-2.3778 1.4293-3.1844 0.9121-0.80666 2.1272-1.1818 3.3353-1.0296 5.0187 0.59293 12.176 4.1081 12.176 19.249-0.2136 5.3316-1.4501 10.572-3.6422 15.437-1.2399 2.622-1.0521 5.6961 0.4978 8.1475 1.5499 2.4515 4.2463 3.9396 7.1467 3.944h25.644c4.679 0 8.471 3.7923 8.471 8.4703 0 4.6781-3.792 8.4704-8.471 8.4704z" fill="#E8EDFC"/>
  <path d="m31.886 48.933h-21.176c-4.6781 0-8.4704 3.7923-8.4704 8.4704v50.822c0 4.678 3.7923 8.471 8.4704 8.471h21.176c4.678 0 8.4703-3.793 8.4703-8.471v-50.822c0-4.6781-3.7923-8.4704-8.4703-8.4704z" fill="#A4C2F7"/>
  <path d="m10.71 116.7h6.3527c-4.678 0-8.4703-3.793-8.4703-8.471v-50.822c0-4.6781 3.7923-8.4704 8.4703-8.4704h-6.3527c-4.6781 0-8.4704 3.7923-8.4704 8.4704v50.822c0 4.678 3.7923 8.471 8.4704 8.471z" fill="#fff"/>
  <path d="m2.2396 67.991c1.1695 0 2.1176-0.9481 2.1176-2.1176s-0.94808-2.1176-2.1176-2.1176-2.1176 0.9481-2.1176 2.1176 0.94808 2.1176 2.1176 2.1176z" fill="#428DFF"/>
  <path d="m93.296 80.697h-2.1176c-1.1695 0-2.1176 0.948-2.1176 2.1175 0 1.1696 0.9481 2.1176 2.1176 2.1176h2.1176c1.1695 0 2.1176-0.948 2.1176-2.1176 0-1.1695-0.9481-2.1175-2.1176-2.1175z" fill="#2276F1"/>
  <path d="m95.414 63.756h-2.1176c-1.1695 0-2.1176 0.9481-2.1176 2.1176s0.9481 2.1176 2.1176 2.1176h2.1176c1.1695 0 2.1175-0.9481 2.1175-2.1176s-0.948-2.1176-2.1175-2.1176z" fill="#2276F1"/>
  <path d="m59.414 95.52c-1.1695 0-2.1175 0.9481-2.1175 2.1176v4.2356c0 1.169 0.948 2.117 2.1175 2.117 1.1696 0 2.1176-0.948 2.1176-2.117v-4.2356c0-1.1695-0.948-2.1176-2.1176-2.1176z" fill="#2276F1"/>
  <path d="m59.414 70.109c-1.1695 0-2.1175 0.948-2.1175 2.1176v16.941c0 1.1695 0.948 2.1176 2.1175 2.1176 1.1696 0 2.1176-0.9481 2.1176-2.1176v-16.941c0-1.1696-0.948-2.1176-2.1176-2.1176z" fill="#2276F1"/>
  <path d="m31.886 48.933h-6.3528c4.6781 0 8.4704 3.7923 8.4704 8.4704v50.822c0 4.678-3.7923 8.471-8.4704 8.471h6.3528c4.678 0 8.4703-3.793 8.4703-8.471v-50.822c0-4.6781-3.7923-8.4704-8.4703-8.4704z" fill="#7FACFA"/>
  <path d="m21.298 65.874c2.3391 0 4.2352-1.8962 4.2352-4.2352s-1.8961-4.2352-4.2352-4.2352c-2.339 0-4.2352 1.8962-4.2352 4.2352s1.8962 4.2352 4.2352 4.2352z" fill="#E8EDFC"/>
  <path d="m27.651 61.638c0-3.5086-2.8442-6.3528-6.3528-6.3528-3.5085 0-6.3527 2.8442-6.3527 6.3528 0 3.5085 2.8442 6.3527 6.3527 6.3527 3.5086 0 6.3528-2.8442 6.3528-6.3527zm-8.4704 0c0-1.1695 0.9481-2.1176 2.1176-2.1176s2.1176 0.9481 2.1176 2.1176-0.9481 2.1176-2.1176 2.1176-2.1176-0.9481-2.1176-2.1176z" fill="#2276F1"/>
  <path d="m103.88 108.22c3e-3 2.248-0.889 4.404-2.478 5.993s-3.7451 2.481-5.9924 2.478h6.3524c4.678 0 8.471-3.793 8.471-8.471s-3.793-8.4699-8.471-8.4699h-6.3524c4.6784 0 8.4704 3.7919 8.4704 8.4699z" fill="#CAD9FC"/>
  <path d="m80.59 21.404c-0.2136 5.3316-1.4501 10.572-3.6422 15.437-1.2399 2.6219-1.0521 5.696 0.4978 8.1475s4.2463 3.9395 7.1467 3.9439h6.3528c-2.9004-0.0044-5.5968-1.4924-7.1467-3.9439s-1.7377-5.5256-0.4978-8.1475c2.1921-4.8648 3.4286-10.106 3.6422-15.437 0-15.141-7.1574-18.656-12.176-19.249-1.0878-0.13531-2.1851 0.16203-3.0557 0.82798 4.3686 1.7216 8.879 6.4015 8.879 18.421z" fill="#CAD9FC"/>
  <path d="m122.58 63.396c2.426-2.4226 3.152-6.0682 1.839-9.2351-1.312-3.1669-4.404-5.2307-7.832-5.228h-6.352c4.678 0 8.47 3.7923 8.47 8.4704 0 4.678-3.792 8.4703-8.47 8.4703h-4.235c4.678 0 8.47 3.7923 8.47 8.4704 0 4.678-3.792 8.4704-8.47 8.4704h-4.236c4.678 0 8.471 3.7923 8.471 8.4703 0 4.6781-3.793 8.4704-8.471 8.4704h6.353c4.678 0 8.47-3.7923 8.47-8.4704 0-4.678-3.792-8.4703-8.47-8.4703h4.235c4.678 0 8.471-3.7924 8.471-8.4704 0-4.6781-3.793-8.4704-8.471-8.4704h4.235c2.246-4e-3 4.4-0.8944 5.993-2.4776z" fill="#CAD9FC"/>
  <path d="m127.18 57.403c-7e-3 -5.8447-4.743-10.581-10.588-10.588h-25.648c-2.1392 0.0234-4.1382-1.0622-5.2834-2.8693-1.199-1.8669-1.3635-4.2163-0.4362-6.2321 2.3264-5.1358 3.6304-10.675 3.8392-16.31 0-17.119-8.7965-20.729-14.042-21.356-1.8101-0.22434-3.6292 0.3401-4.9944 1.5496-1.3651 1.2095-2.1445 2.9475-2.1398 4.7714v10.8c0 5.1012-5.5396 14.745-15.198 26.47-2.4924 3.0305-3.8567 6.8315-3.8604 10.755v45.361c0.0128 10.52 8.538 19.046 19.058 19.058h33.881c4.052-1e-3 7.747-2.315 9.518-5.959s1.308-7.979-1.193-11.166c3.74-0.71 6.811-3.3747 8.043-6.9777 1.231-3.6031 0.433-7.5899-2.091-10.441 3.271-1.2174 5.732-3.9688 6.579-7.355 0.846-3.3862-0.03-6.9721-2.344-9.5857 4.145-1.5452 6.895-5.5015 6.899-9.9251zm-10.588 6.3527h-12.705c-1.17 0-2.118 0.9481-2.118 2.1176s0.948 2.1176 2.118 2.1176h8.47c3.509 0 6.353 2.8443 6.353 6.3528s-2.844 6.3528-6.353 6.3528h-10.588c-1.169 0-2.1172 0.948-2.1172 2.1176 0 1.1695 0.9482 2.1175 2.1172 2.1175h6.353c3.509 0 6.353 2.8443 6.353 6.3528 0 3.5086-2.844 6.3528-6.353 6.3528h-14.823c-1.1695 0-2.1176 0.9481-2.1176 2.1176 0 1.1699 0.9481 2.1179 2.1176 2.1179h8.47c3.509 0 6.353 2.844 6.353 6.352 0 3.509-2.844 6.353-6.353 6.353h-33.881c-8.1827-9e-3 -14.814-6.64-14.823-14.823v-45.361c1e-4 -2.944 1.0226-5.7965 2.8926-8.0702 7.3756-8.9447 16.166-21.263 16.166-29.155v-10.8c-0.0043-0.60585 0.2545-1.1838 0.7094-1.584 0.3899-0.34916 0.8954-0.54152 1.4188-0.53999 0.0889 0 0.1778 0 0.2689 0.01482 6.7424 0.80045 10.308 6.7318 10.308 17.144-0.2156 5.0305-1.3908 9.9734-3.4622 14.563-1.5249 3.3258-1.2479 7.1996 0.7348 10.275 1.9339 3.0069 5.2678 4.82 8.843 4.809h25.648c3.509 0 6.353 2.8442 6.353 6.3528 0 3.5085-2.844 6.3527-6.353 6.3527z" fill="#2276F1"/>
  <path d="m10.71 97.637c1.1695 0 2.1176-0.948 2.1176-2.1176v-12.706c0-1.1695-0.9481-2.1176-2.1176-2.1176-1.1696 0-2.1176 0.9481-2.1176 2.1176v12.706c0 1.1696 0.94807 2.1176 2.1176 2.1176z" fill="#2276F1"/>
  <path d="m8.5924 106.11c0 1.169 0.94807 2.117 2.1176 2.117 1.1695 0 2.1176-0.948 2.1176-2.117v-2.118c0-1.169-0.9481-2.117-2.1176-2.117-1.1696 0-2.1176 0.948-2.1176 2.117v2.118z" fill="#2276F1"/>
</svg>

<svg width="128" height="119" viewBox="0 0 128 119" fill="none" xmlns="http://www.w3.org/2000/svg">
<path d="M0.122009 57.4032H4.35719V74.3439H0.122009V57.4032Z" fill="white"/>
<path d="M10.71 118.813H31.8859C37.7305 118.806 42.4668 114.07 42.4738 108.225V57.4033C42.4668 51.5586 37.7305 46.8223 31.8859 46.8153H10.71C4.8653 46.8223 0.12901 51.5586 0.122009 57.4033C0.122009 58.5728 1.07009 59.5208 2.2396 59.5208C3.40911 59.5208 4.35719 58.5728 4.35719 57.4033C4.35719 53.8947 7.20142 51.0505 10.71 51.0505H31.8859C35.3944 51.0505 38.2386 53.8947 38.2386 57.4033V108.225C38.2386 111.734 35.3944 114.578 31.8859 114.578H10.71C7.20142 114.578 4.35719 111.734 4.35719 108.225V74.344C4.35719 73.1745 3.40911 72.2264 2.2396 72.2264C1.07009 72.2264 0.122009 73.1745 0.122009 74.344V108.225C0.12901 114.07 4.8653 118.806 10.71 118.813Z" fill="#2276F1"/>
<path d="M116.589 65.8736H112.354C117.032 65.8736 120.825 69.6659 120.825 74.344C120.825 79.022 117.032 82.8143 112.354 82.8143H108.119C112.797 82.8143 116.589 86.6066 116.589 91.2847C116.589 95.9627 112.797 99.755 108.119 99.755H101.766C106.444 99.755 110.237 103.547 110.237 108.225C110.237 112.903 106.444 116.696 101.766 116.696H67.8849C58.5288 116.696 50.9442 109.111 50.9442 99.755V54.3963C50.9413 50.96 52.1314 47.6294 54.3112 44.973C59.7957 38.3449 70.0025 24.9194 70.0025 17.169V6.36932C69.999 5.15172 70.5198 3.99153 71.4318 3.18487C72.3439 2.37821 73.559 2.00311 74.7671 2.15531C79.7858 2.74824 86.9432 6.26344 86.9432 21.4042C86.7296 26.7358 85.4931 31.9766 83.301 36.8414C82.0611 39.4634 82.2489 42.5375 83.7988 44.9889C85.3487 47.4404 88.0451 48.9285 90.9455 48.9329H116.589C121.268 48.9329 125.06 52.7252 125.06 57.4032C125.06 62.0813 121.268 65.8736 116.589 65.8736Z" fill="#E8EDFC"/>
<path d="M31.8859 48.9328H10.71C6.0319 48.9328 2.23959 52.7251 2.23959 57.4032V108.225C2.23959 112.903 6.0319 116.696 10.71 116.696H31.8859C36.5639 116.696 40.3562 112.903 40.3562 108.225V57.4032C40.3562 52.7251 36.5639 48.9328 31.8859 48.9328Z" fill="#A4C2F7"/>
<path d="M10.71 116.696H17.0627C12.3847 116.696 8.59236 112.903 8.59236 108.225V57.4031C8.59236 52.725 12.3847 48.9327 17.0627 48.9327H10.71C6.0319 48.9327 2.23959 52.725 2.23959 57.4031V108.225C2.23959 112.903 6.0319 116.696 10.71 116.696Z" fill="white"/>
<path d="M2.2396 67.9912C3.40911 67.9912 4.35719 67.0431 4.35719 65.8736C4.35719 64.7041 3.40911 63.756 2.2396 63.756C1.07009 63.756 0.122009 64.7041 0.122009 65.8736C0.122009 67.0431 1.07009 67.9912 2.2396 67.9912Z" fill="#428DFF"/>
<path d="M93.296 80.6967H91.1784C90.0089 80.6967 89.0608 81.6447 89.0608 82.8142C89.0608 83.9838 90.0089 84.9318 91.1784 84.9318H93.296C94.4655 84.9318 95.4136 83.9838 95.4136 82.8142C95.4136 81.6447 94.4655 80.6967 93.296 80.6967Z" fill="#2276F1"/>
<path d="M95.4136 63.756H93.296C92.1265 63.756 91.1784 64.7041 91.1784 65.8736C91.1784 67.0431 92.1265 67.9912 93.296 67.9912H95.4136C96.5831 67.9912 97.5311 67.0431 97.5311 65.8736C97.5311 64.7041 96.5831 63.756 95.4136 63.756Z" fill="#2276F1"/>
<path d="M59.4145 95.5198C58.245 95.5198 57.297 96.4679 57.297 97.6374V101.873C57.297 103.042 58.245 103.99 59.4145 103.99C60.5841 103.99 61.5321 103.042 61.5321 101.873V97.6374C61.5321 96.4679 60.5841 95.5198 59.4145 95.5198Z" fill="#2276F1"/>
<path d="M59.4145 70.1088C58.245 70.1088 57.297 71.0568 57.297 72.2264V89.1671C57.297 90.3366 58.245 91.2847 59.4145 91.2847C60.5841 91.2847 61.5321 90.3366 61.5321 89.1671V72.2264C61.5321 71.0568 60.5841 70.1088 59.4145 70.1088Z" fill="#2276F1"/>
<path d="M31.8859 48.9328H25.5331C30.2112 48.9328 34.0035 52.7251 34.0035 57.4032V108.225C34.0035 112.903 30.2112 116.696 25.5331 116.696H31.8859C36.5639 116.696 40.3562 112.903 40.3562 108.225V57.4032C40.3562 52.7251 36.5639 48.9328 31.8859 48.9328Z" fill="#7FACFA"/>
<path d="M21.2979 65.8736C23.637 65.8736 25.5331 63.9774 25.5331 61.6384C25.5331 59.2994 23.637 57.4032 21.2979 57.4032C18.9589 57.4032 17.0627 59.2994 17.0627 61.6384C17.0627 63.9774 18.9589 65.8736 21.2979 65.8736Z" fill="#E8EDFC"/>
<path d="M27.6507 61.6385C27.6507 58.1299 24.8065 55.2857 21.2979 55.2857C17.7894 55.2857 14.9452 58.1299 14.9452 61.6385C14.9452 65.147 17.7894 67.9912 21.2979 67.9912C24.8065 67.9912 27.6507 65.147 27.6507 61.6385ZM19.1803 61.6385C19.1803 60.469 20.1284 59.5209 21.2979 59.5209C22.4674 59.5209 23.4155 60.469 23.4155 61.6385C23.4155 62.808 22.4674 63.7561 21.2979 63.7561C20.1284 63.7561 19.1803 62.808 19.1803 61.6385Z" fill="#2276F1"/>
<path d="M103.884 108.225C103.887 110.473 102.995 112.629 101.406 114.218C99.817 115.807 97.6609 116.699 95.4136 116.696L101.766 116.696C106.444 116.696 110.237 112.903 110.237 108.225C110.237 103.547 106.444 99.7551 101.766 99.7551H95.4136C100.092 99.7551 103.884 103.547 103.884 108.225Z" fill="#CAD9FC"/>
<path d="M80.5904 21.4042C80.3768 26.7358 79.1403 31.9767 76.9482 36.8415C75.7083 39.4634 75.8961 42.5375 77.446 44.989C78.9959 47.4405 81.6923 48.9285 84.5927 48.9329H90.9455C88.0451 48.9285 85.3487 47.4405 83.7988 44.989C82.2489 42.5375 82.0611 39.4634 83.301 36.8415C85.4931 31.9767 86.7296 26.7358 86.9432 21.4042C86.9432 6.26346 79.7858 2.74826 74.7671 2.15534C73.6793 2.02003 72.582 2.31737 71.7114 2.98332C76.08 4.70492 80.5904 9.38479 80.5904 21.4042Z" fill="#CAD9FC"/>
<path d="M122.582 63.3959C125.008 60.9733 125.734 57.3277 124.421 54.1608C123.109 50.9939 120.017 48.9301 116.589 48.9328H110.237C114.915 48.9328 118.707 52.7251 118.707 57.4032C118.707 62.0812 114.915 65.8735 110.237 65.8735H106.002C110.68 65.8735 114.472 69.6658 114.472 74.3439C114.472 79.0219 110.68 82.8143 106.002 82.8143H101.766C106.444 82.8143 110.237 86.6066 110.237 91.2846C110.237 95.9627 106.444 99.755 101.766 99.755H108.119C112.797 99.755 116.589 95.9627 116.589 91.2846C116.589 86.6066 112.797 82.8143 108.119 82.8143H112.354C117.032 82.8143 120.825 79.0219 120.825 74.3439C120.825 69.6658 117.032 65.8735 112.354 65.8735H116.589C118.835 65.8695 120.989 64.9791 122.582 63.3959Z" fill="#CAD9FC"/>
<path d="M127.177 57.4033C127.17 51.5586 122.434 46.8223 116.589 46.8153H90.9412C88.802 46.8387 86.803 45.7531 85.6578 43.946C84.4588 42.0791 84.2943 39.7297 85.2216 37.7139C87.548 32.5781 88.852 27.0385 89.0608 21.4042C89.0608 4.28564 80.2643 0.675145 75.0191 0.048338C73.209 -0.176007 71.3899 0.38844 70.0247 1.59798C68.6596 2.80752 67.8802 4.54546 67.8849 6.36935V17.1691C67.8849 22.2703 62.3453 31.9138 52.687 43.6389C50.1946 46.6694 48.8303 50.4704 48.8266 54.3942V99.7551C48.8394 110.275 57.3646 118.801 67.8849 118.813H101.766C105.818 118.812 109.513 116.498 111.284 112.854C113.055 109.21 112.592 104.875 110.091 101.688C113.831 100.978 116.902 98.3133 118.134 94.7103C119.365 91.1072 118.567 87.1204 116.043 84.2691C119.314 83.0517 121.775 80.3003 122.622 76.9141C123.468 73.5279 122.592 69.942 120.278 67.3284C124.423 65.7832 127.173 61.8269 127.177 57.4033ZM116.589 63.756H103.884C102.714 63.756 101.766 64.7041 101.766 65.8736C101.766 67.0431 102.714 67.9912 103.884 67.9912H112.354C115.863 67.9912 118.707 70.8355 118.707 74.344C118.707 77.8525 115.863 80.6968 112.354 80.6968H101.766C100.597 80.6968 99.6488 81.6448 99.6488 82.8144C99.6488 83.9839 100.597 84.9319 101.766 84.9319H108.119C111.628 84.9319 114.472 87.7762 114.472 91.2847C114.472 94.7933 111.628 97.6375 108.119 97.6375H93.296C92.1265 97.6375 91.1784 98.5856 91.1784 99.7551C91.1784 100.925 92.1265 101.873 93.296 101.873H101.766C105.275 101.873 108.119 104.717 108.119 108.225C108.119 111.734 105.275 114.578 101.766 114.578H67.8849C59.7022 114.569 53.0711 107.938 53.0618 99.7551V54.3942C53.0619 51.4502 54.0844 48.5977 55.9544 46.324C63.33 37.3793 72.1201 25.0613 72.1201 17.1691V6.36935C72.1158 5.7635 72.3746 5.1856 72.8295 4.78539C73.2194 4.43623 73.7249 4.24387 74.2483 4.2454C74.3372 4.2454 74.4261 4.2454 74.5172 4.26022C81.2596 5.06067 84.8256 10.992 84.8256 21.4042C84.61 26.4347 83.4348 31.3776 81.3634 35.9669C79.8385 39.2927 80.1155 43.1665 82.0982 46.2415C84.0321 49.2484 87.366 51.0615 90.9412 51.0505H116.589C120.098 51.0505 122.942 53.8947 122.942 57.4033C122.942 60.9118 120.098 63.756 116.589 63.756Z" fill="#2276F1"/>
<path d="M10.71 97.6374C11.8795 97.6374 12.8276 96.6894 12.8276 95.5198V82.8143C12.8276 81.6448 11.8795 80.6967 10.71 80.6967C9.54045 80.6967 8.59238 81.6448 8.59238 82.8143V95.5198C8.59238 96.6894 9.54045 97.6374 10.71 97.6374Z" fill="#2276F1"/>
<path d="M8.59238 106.108C8.59238 107.277 9.54045 108.225 10.71 108.225C11.8795 108.225 12.8276 107.277 12.8276 106.108V103.99C12.8276 102.821 11.8795 101.873 10.71 101.873C9.54045 101.873 8.59238 102.821 8.59238 103.99V106.108Z" fill="#2276F1"/>
</svg>
